Catalina-dark/actions/16/merge.svg

<svg width="16" height="16" version="1.1" viewBox="0 0 16 16" xmlns="http://www.w3.org/2000/svg">
<defs>
<style id="current-color-scheme" type="text/css">.ColorScheme-Text { color:#5c616c; } .ColorScheme-Highlight { color:#5294e2; }</style>
</defs>
<path class="ColorScheme-Text" d="m1 1a1.0001 1.0001 0 0 0-1 1v4a1.0001 1.0001 0 0 0 1 1h5v2h-5a1.0001 1.0001 0 0 0-1 1v4a1.0001 1.0001 0 0 0 1 1h7a1.0001 1.0001 0 0 0 1-1v-3h5a1.0001 1.0001 0 0 0 1-1v-4a1.0001 1.0001 0 0 0-1-1h-5v-3a1.0001 1.0001 0 0 0-1-1h-7z" fill="#f1f6f8" fill-opacity=".85098"/>
</svg>

<?xml version="1.0" encoding="UTF-8" standalone="no"?>
<svg
   xmlns:dc="http://purl.org/dc/elements/1.1/"
   xmlns:cc="http://creativecommons.org/ns#"
   xmlns:rdf="http://www.w3.org/1999/02/22-rdf-syntax-ns#"
   xmlns:svg="http://www.w3.org/2000/svg"
   xmlns="http://www.w3.org/2000/svg"
   xmlns:sodipodi="http://sodipodi.sourceforge.net/DTD/sodipodi-0.dtd"
   xmlns:inkscape="http://www.inkscape.org/namespaces/inkscape"
   width="16"
   height="16"
   viewBox="0 0 16 16"
   version="1.1"
   id="svg7"
   sodipodi:docname="merge.svg"
   inkscape:version="0.92.4 5da689c313, 2019-01-14">
  <metadata
     id="metadata11">
    <rdf:RDF>
      <cc:Work
         rdf:about="">
        <dc:format>image/svg+xml</dc:format>
        <dc:type
           rdf:resource="http://purl.org/dc/dcmitype/StillImage" />
      </cc:Work>
    </rdf:RDF>
  </metadata>
  <sodipodi:namedview
     pagecolor="#ffffff"
     bordercolor="#666666"
     borderopacity="1"
     objecttolerance="10"
     gridtolerance="10"
     guidetolerance="10"
     inkscape:pageopacity="0"
     inkscape:pageshadow="2"
     inkscape:window-width="640"
     inkscape:window-height="480"
     id="namedview9"
     showgrid="false"
     inkscape:zoom="14.75"
     inkscape:cx="6.8135593"
     inkscape:cy="8"
     inkscape:window-x="0"
     inkscape:window-y="26"
     inkscape:window-maximized="0"
     inkscape:current-layer="svg7" />
  <defs
     id="defs3">
    <style
       id="current-color-scheme"
       type="text/css">
   .ColorScheme-Text { color:#5c616c; } .ColorScheme-Highlight { color:#5294e2; }
  </style>
  </defs>
  <path
     style="fill:#f1f6f8;fill-opacity:0.8509804"
     class="ColorScheme-Text"
     d="M 1 1 A 1.0001 1.0001 0 0 0 0 2 L 0 6 A 1.0001 1.0001 0 0 0 1 7 L 6 7 L 6 9 L 1 9 A 1.0001 1.0001 0 0 0 0 10 L 0 14 A 1.0001 1.0001 0 0 0 1 15 L 8 15 A 1.0001 1.0001 0 0 0 9 14 L 9 11 L 14 11 A 1.0001 1.0001 0 0 0 15 10 L 15 6 A 1.0001 1.0001 0 0 0 14 5 L 9 5 L 9 2 A 1.0001 1.0001 0 0 0 8 1 L 1 1 z"
     id="path5" />
</svg>
